X: 10681
M: C|
L: 1/8
K: A
uc !segno!|\
(A,>E)(C>E) (d>c)d>e | (3fed (3cBA (3GFE (3DCB, |
(A,>E)(C>E) (d>c)d>e | (3fed (3cBA G<B B |]
ue |\
(A>e) (c>e) (.A>.e)(c>A) | (.A>.e)(c>A) (3cde (3fga |\
(A>e)(c>e) (.A>.e)(c>e) | (3fed (3cBA (.G>.B)(B>c) |
(A>e)(c>e) (.A>.e)(c>A) | (.A>.e)(c>A) (3cde (3fga |\
(3agf (3edc (3fed (3cBA | (3cBd (3cBA (3GFE "_Segue Reel."(3DCB, !segno!|]


